X:088 
T:John Colton's (reel)
S:Donnelly < W.Jones
F:file ID: cre.4/088john_c
B:CRE4.142 (SeÃÂÃÂÃÂÃÂ¡n o ComhaltÃÂÃÂÃÂÃÂ¡in)
Q:180
L:1/8
M:4/4
R:reel
K:Em
edBe dBAd|BAGE EDB,E|DEB,E DEGA|Bdgb aged|
edBe dBAd|BAGE EDB,E|DEGA Bdgb|aged Be e2:|
|:g2fg eB B2|eB B2 dBGA|Bdef gfgb|(3bag ab agef|
gafg eB B2|eB B2 dBGA|GABd gbaf|gfed Be e2:|

%%%

